icons/src/filemenu.and.selection.svg

<!--Generator: Apple Native CoreSVG 341-->
<!DOCTYPE svg  PUBLIC '-//W3C//DTD SVG 1.1//EN'  'http://www.w3.org/Graphics/SVG/1.1/DTD/svg11.dtd'>
<svg version="1.1" viewBox="0 0 23.389 17.978" xmlns="http://www.w3.org/2000/svg">
 <rect width="23.389" height="17.978" opacity="0"/>
 <path d="m23.027 3.0273v11.934c0 2.0118-1.0156 3.0176-3.0664 3.0176h-16.894c-2.041 0-3.0664-1.0058-3.0664-3.0176v-11.934c0-2.0117 1.0254-3.0273 3.0664-3.0273h16.894c2.0508 0 3.0664 1.0156 3.0664 3.0273zm-19.941-1.4551c-0.97656 0-1.5137 0.52734-1.5137 1.543v11.758c0 1.0157 0.53711 1.5332 1.5137 1.5332h16.855c0.9668 0 1.5137-0.5175 1.5137-1.5332v-11.758c0-1.0156-0.5469-1.543-1.5137-1.543zm10.762 12.09c0 0.332-0.2539 0.5859-0.6055 0.5859h-8.2617c-0.35156 0-0.60547-0.2539-0.60547-0.5859 0-0.3418 0.25391-0.6152 0.60547-0.6152h8.2617c0.3516 0 0.6055 0.2734 0.6055 0.6152zm0-9.3457c0 0.34179-0.2539 0.60547-0.6055 0.60547h-8.2617c-0.35156 0-0.60547-0.26368-0.60547-0.60547 0-0.33203 0.25391-0.59571 0.60547-0.59571h8.2617c0.3516 0 0.6055 0.26368 0.6055 0.59571z" fill="#fff"/>
 <path d="m20.215 7.9883v1.9922c0 0.80073-0.4785 1.3086-1.289 1.3086h-14.814c-0.81055 0-1.2891-0.5079-1.2891-1.3086v-1.9922c0-0.80078 0.47851-1.3086 1.2891-1.3086h14.814c0.8105 0 1.289 0.50781 1.289 1.3086zm-15.225 0.40039c-0.35156 0-0.61523 0.26367-0.61523 0.59571 0 0.34179 0.26367 0.60546 0.61523 0.60546h4.8047c0.35158 0 0.60548-0.26367 0.60548-0.60546 0-0.33204-0.2539-0.59571-0.60548-0.59571z" fill="#fff"/>
</svg>

<?xml version="1.0" encoding="UTF-8"?>
<!--Generator: Apple Native CoreSVG 341-->
<!DOCTYPE svg
PUBLIC "-//W3C//DTD SVG 1.1//EN"
       "http://www.w3.org/Graphics/SVG/1.1/DTD/svg11.dtd">
<svg version="1.1" xmlns="http://www.w3.org/2000/svg" xmlns:xlink="http://www.w3.org/1999/xlink" viewBox="0 0 23.3887 17.9785">
 <g>
  <rect height="17.9785" opacity="0" width="23.3887" x="0" y="0"/>
  <path d="M23.0273 3.02734L23.0273 14.9609C23.0273 16.9727 22.0117 17.9785 19.9609 17.9785L3.06641 17.9785C1.02539 17.9785 0 16.9727 0 14.9609L0 3.02734C0 1.01562 1.02539 0 3.06641 0L19.9609 0C22.0117 0 23.0273 1.01562 23.0273 3.02734ZM3.08594 1.57227C2.10938 1.57227 1.57227 2.09961 1.57227 3.11523L1.57227 14.873C1.57227 15.8887 2.10938 16.4062 3.08594 16.4062L19.9414 16.4062C20.9082 16.4062 21.4551 15.8887 21.4551 14.873L21.4551 3.11523C21.4551 2.09961 20.9082 1.57227 19.9414 1.57227ZM13.8477 13.6621C13.8477 13.9941 13.5938 14.248 13.2422 14.248L4.98047 14.248C4.62891 14.248 4.375 13.9941 4.375 13.6621C4.375 13.3203 4.62891 13.0469 4.98047 13.0469L13.2422 13.0469C13.5938 13.0469 13.8477 13.3203 13.8477 13.6621ZM13.8477 4.31641C13.8477 4.6582 13.5938 4.92188 13.2422 4.92188L4.98047 4.92188C4.62891 4.92188 4.375 4.6582 4.375 4.31641C4.375 3.98438 4.62891 3.7207 4.98047 3.7207L13.2422 3.7207C13.5938 3.7207 13.8477 3.98438 13.8477 4.31641Z" fill="white"/>
  <path d="M20.2148 7.98828L20.2148 9.98047C20.2148 10.7812 19.7363 11.2891 18.9258 11.2891L4.11133 11.2891C3.30078 11.2891 2.82227 10.7812 2.82227 9.98047L2.82227 7.98828C2.82227 7.1875 3.30078 6.67969 4.11133 6.67969L18.9258 6.67969C19.7363 6.67969 20.2148 7.1875 20.2148 7.98828ZM4.99023 8.38867C4.63867 8.38867 4.375 8.65234 4.375 8.98438C4.375 9.32617 4.63867 9.58984 4.99023 9.58984L9.79492 9.58984C10.1465 9.58984 10.4004 9.32617 10.4004 8.98438C10.4004 8.65234 10.1465 8.38867 9.79492 8.38867Z" fill="white"/>
 </g>
</svg>
